src/android-image.svg

<?xml version="1.0" encoding="utf-8"?>
<!-- Generated by IcoMoon.io -->
<!DOCTYPE svg PUBLIC "-//W3C//DTD SVG 1.1//EN" "http://www.w3.org/Graphics/SVG/1.1/DTD/svg11.dtd">
<svg version="1.1" xmlns="http://www.w3.org/2000/svg" xmlns:xlink="http://www.w3.org/1999/xlink" width="512" height="512" viewBox="0 0 512 512">
<path fill="#000000" d="M448 405.333v-298.666c0-23.469-19.198-42.667-42.667-42.667h-298.666c-23.469 0-42.667 19.198-42.667 42.667v298.666c0 23.469 19.198 42.667 42.667 42.667h298.666c23.469 0 42.667-19.198 42.667-42.667zM181.333 288l53.334 64 74.666-96 96 128h-298.666l74.666-96z"></path>
</svg>

<?xml version="1.0" encoding="utf-8"?>
<!-- Generator: Adobe Illustrator 16.2.1, SVG Export Plug-In . SVG Version: 6.00 Build 0)  -->
<!DOCTYPE svg PUBLIC "-//W3C//DTD SVG 1.1//EN" "http://www.w3.org/Graphics/SVG/1.1/DTD/svg11.dtd">
<svg version="1.1" id="Layer_1" xmlns="http://www.w3.org/2000/svg" xmlns:xlink="http://www.w3.org/1999/xlink" x="0px" y="0px"
	 width="512px" height="512px" viewBox="0 0 512 512" enable-background="new 0 0 512 512" xml:space="preserve">
<g id="Icon_8_">
	<g>
		<path d="M448,405.333V106.667C448,83.198,428.802,64,405.333,64H106.667C83.198,64,64,83.198,64,106.667v298.666
			C64,428.802,83.198,448,106.667,448h298.666C428.802,448,448,428.802,448,405.333z M181.333,288l53.334,64l74.666-96l96,128
			H106.667L181.333,288z"/>
	</g>
</g>
</svg>
